X: 1
T:the Fourposter Bed
R:Jig
O:Wales
M:6/8
K:D
e^de gfe | e^de gfe | e2^d e2a | f3 d3 :|
|: e2d cBA | e2d cBA | d2d e2a | f3 d3 :|
